reader/components/icons/assets/info.svg

<svg viewBox="0 0 24 24" xmlns="http://www.w3.org/2000/svg"><path d="M12 0C5.352 0 0 5.352 0 12s5.352 12 12 12 12-5.352 12-12S18.648 0 12 0zm0 6.048c.84 0 1.488.648 1.488 1.488S12.84 9.024 12 9.024s-1.488-.648-1.488-1.488S11.16 6.048 12 6.048zm2.496 10.512c0 .24-.192.456-.504.456h-3.984c-.24 0-.504-.144-.504-.456v-1.008c0-.24.192-.552.504-.552.24 0 .504-.144.504-.456v-1.992c0-.24-.192-.552-.504-.552-.24 0-.504-.144-.504-.456v-.984c0-.24.192-.552.504-.552h3c.24 0 .504.24.504.552v4.008c0 .24.192.456.504.456.24 0 .504.24.504.552v.984h-.024z"/></svg>

<svg viewBox="0 0 24 24" xmlns="http://www.w3.org/2000/svg">
  <path d="M12 0C5.352 0 0 5.352 0 12C0 18.648 5.352 24 12 24C18.648 24 24 18.648 24 12C24 5.352 18.648 0 12 0ZM12 6.048C12.84 6.048 13.488 6.696 13.488 7.536C13.488 8.376 12.84 9.024 12 9.024C11.16 9.024 10.512 8.376 10.512 7.536C10.512 6.696 11.16 6.048 12 6.048ZM14.496 16.56C14.496 16.8 14.304 17.016 13.992 17.016H10.008C9.768 17.016 9.504 16.872 9.504 16.56V15.552C9.504 15.312 9.696 15 10.008 15C10.248 15 10.512 14.856 10.512 14.544V12.552C10.512 12.312 10.32 12 10.008 12C9.768 12 9.504 11.856 9.504 11.544V10.56C9.504 10.32 9.696 10.008 10.008 10.008H13.008C13.248 10.008 13.512 10.248 13.512 10.56V14.568C13.512 14.808 13.704 15.024 14.016 15.024C14.256 15.024 14.52 15.264 14.52 15.576V16.56H14.496Z"/>
</svg>
